X: 0843
T: OVER THE WATER TO CHARLIE
B: Oliver Ditson "The Boston Collection of Instrumental Music" 1910 p.84 #3
F: http://conquest.imslp.info/files/imglnks/usimg/8/8f/IMSLP175643-PMLP309456-bostoncollection00bost_bw.pdf
%: 2012 John Chambers <jc:trillian.mit.edu>
M: 6/8
L: 1/8
K: F
F |\
FAc cAc | dfd cAF | FAc cAc | (d3 f2)F |\
FAc cAc | dfd cAF | faf gec | (d3 f2) :|
|: f |\
faf gec | dfd cAF | faf gec | (d3 f2)f |\
faf gec | dfd cAF | FAc cAc | (d3 f2) :|

%%sep 1 1 500
%%sep 1 1 500
